proprietary/assets/icons/computer-en-internet/internet.svg

<svg enable-background="new 0 0 64 64" viewBox="0 0 64 64" xmlns="http://www.w3.org/2000/svg"><path d="m13.5094 44c-.8336 0-1.5094-.6758-1.5094-1.5095v-17.9811c0-.8336.6758-1.5094 1.5094-1.5094h32.9812c.8336 0 1.5094.6758 1.5094 1.5094v6.2904c.9174 0 1.9415.0114 3 .036v-15.8616c0-1.6426-1.3315-2.9742-2.9742-2.9742h-36.0516c-1.6427 0-2.9742 1.3316-2.9742 2.9742v30.0515c0 1.6426 1.3315 2.9743 2.9742 2.9743h19.8293c-.0024-.3436-.0037-.6788-.0037-1 0-.9176.0104-1.9413.0345-3zm8.4906-27h26v3h-26zm-5 0h3v3h-3zm-5 0h3v3h-3z"/><path d="m60.4351 36.826c-.1951-1.1728-1.0874-2.0651-2.2608-2.2606-3.3913-.5654-9.0442-.5654-10.1743-.5654-1.13 0-6.7827 0-10.1742.5654-1.1735.1955-2.0658 1.0878-2.2607 2.2606-.5651 3.3913-.5651 9.0437-.5651 10.174 0 1.1304 0 6.7827.5651 10.174.1949 1.1728 1.0872 2.0651 2.2607 2.2607 3.3915.5653 9.0442.5653 10.1742.5653 1.1301 0 6.783 0 10.1743-.5653 1.1734-.1956 2.0657-1.0879 2.2608-2.2607.5649-3.3913.5649-9.0436.5649-10.174 0-3.393 0-6.7827-.5649-10.174zm-8.7334 3.9668c1.6471 1.8538 2.2936 5.8258.8077 8.8069-1.756-.668-3.5264-1.3411-5.3195-2.023.5303-1.6141 3.2662-5.678 4.5118-6.7839zm-6.1994 5.7819c-.8416-.5527-1.7856-1.1727-2.7194-1.7858 1.0345-2.5279 4.317-4.7709 7.094-4.8098-1.4314 2.1585-2.8781 4.3395-4.3746 6.5956zm-5.1902 4.9998c-1.3536-1.7165-1.7525-5.2518-.8428-7.3342.3462.2911.6655.5369.9537.8154.0914.088.1707.2858.1351.3937-.6572 1.9977-.7394 4.0187-.246 6.1251zm.997-8.0302c-1.4007-1.2181-1.4442-.8227-.2749-2.243 2.1079-2.5608 4.8776-3.6163 8.1819-3.2368.1356.0156.2687.0521.4903.0964-.8994.2252-1.7341.3635-2.515.6493-.7842.287-1.5576.6551-2.2571 1.1086-.7148.4631-1.3826 1.0256-1.9816 1.6324-.586.5938-1.0596 1.2986-1.6153 1.9958.0047.0001-.0183.006-.0283-.0027zm.7735 2.8502c.9592.619 1.8803 1.2131 2.7816 1.7947-.5804 1.8403-1.1556 3.6646-1.7219 5.46-1.1056-1.0945-1.9652-4.5605-1.0597-7.2547zm2.657 8.4868c.3607-2.0386.9349-3.9359 1.7004-5.7839 1.7409.6809 3.4581 1.3527 5.2222 2.0428-1.7228 2.2828-3.9838 3.5393-6.9226 3.7411zm3.3101 1.1128c.1104-.075.168-.1318.2371-.1584 2.0742-.8062 3.7076-2.1619 4.9538-3.9913.16-.2349.3011-.3304.5951-.2591.5385.1303 1.0889.2129 1.6861.3253-1.2082 2.3219-4.8391 4.3016-7.4721 4.0835zm8.3233-5.6982c-.6663-.1072-1.35-.217-2.0924-.3363 1.3541-3.6413.9522-7.0361-1.0835-10.2574 3.5414 2.425 4.6808 7.0155 3.1759 10.5937z"/></svg>

<?xml version="1.0" encoding="utf-8"?>
<!-- Generator: Adobe Illustrator 19.2.0, SVG Export Plug-In . SVG Version: 6.00 Build 0)  -->
<svg version="1.0" xmlns="http://www.w3.org/2000/svg" xmlns:xlink="http://www.w3.org/1999/xlink" x="0px" y="0px"
	 viewBox="0 0 64 64" enable-background="new 0 0 64 64" xml:space="preserve">
<g id="achtergrond">
</g>
<g id="paneel_1">
	<g>
		<g>
			<path d="M13.5094,44C12.6758,44,12,43.3242,12,42.4905V24.5094C12,23.6758,12.6758,23,13.5094,23h32.9812
				C47.3242,23,48,23.6758,48,24.5094v6.2904c0.9174,0,1.9415,0.0114,3,0.036V14.9742C51,13.3316,49.6685,12,48.0258,12H11.9742
				C10.3315,12,9,13.3316,9,14.9742v30.0515C9,46.6683,10.3315,48,11.9742,48h19.8293c-0.0024-0.3436-0.0037-0.6788-0.0037-1
				c0-0.9176,0.0104-1.9413,0.0345-3H13.5094z M22,17h26v3H22V17z M17,17h3v3h-3V17z M12,17h3v3h-3V17z"/>
		</g>
		<g>
			<path d="M60.4351,36.826c-0.1951-1.1728-1.0874-2.0651-2.2608-2.2606C54.783,34,49.1301,34,48,34
				c-1.13,0-6.7827,0-10.1742,0.5654c-1.1735,0.1955-2.0658,1.0878-2.2607,2.2606C35,40.2173,35,45.8697,35,47
				c0,1.1304,0,6.7827,0.5651,10.174c0.1949,1.1728,1.0872,2.0651,2.2607,2.2607C41.2173,60,46.87,60,48,60
				c1.1301,0,6.783,0,10.1743-0.5653c1.1734-0.1956,2.0657-1.0879,2.2608-2.2607C61,53.7827,61,48.1304,61,47
				C61,43.607,61,40.2173,60.4351,36.826z M51.7017,40.7928c1.6471,1.8538,2.2936,5.8258,0.8077,8.8069
				c-1.756-0.668-3.5264-1.3411-5.3195-2.023C47.7202,45.9626,50.4561,41.8987,51.7017,40.7928z M45.5023,46.5747
				c-0.8416-0.5527-1.7856-1.1727-2.7194-1.7858c1.0345-2.5279,4.317-4.7709,7.094-4.8098
				C48.4455,42.1376,46.9988,44.3186,45.5023,46.5747z M40.3121,51.5745c-1.3536-1.7165-1.7525-5.2518-0.8428-7.3342
				c0.3462,0.2911,0.6655,0.5369,0.9537,0.8154c0.0914,0.088,0.1707,0.2858,0.1351,0.3937
				C39.9009,47.4471,39.8187,49.4681,40.3121,51.5745z M41.3091,43.5443c-1.4007-1.2181-1.4442-0.8227-0.2749-2.243
				c2.1079-2.5608,4.8776-3.6163,8.1819-3.2368c0.1356,0.0156,0.2687,0.0521,0.4903,0.0964
				c-0.8994,0.2252-1.7341,0.3635-2.515,0.6493c-0.7842,0.287-1.5576,0.6551-2.2571,1.1086
				c-0.7148,0.4631-1.3826,1.0256-1.9816,1.6324c-0.586,0.5938-1.0596,1.2986-1.6153,1.9958
				C41.3421,43.5471,41.3191,43.553,41.3091,43.5443z M42.0826,46.3945c0.9592,0.619,1.8803,1.2131,2.7816,1.7947
				c-0.5804,1.8403-1.1556,3.6646-1.7219,5.46C42.0367,52.5547,41.1771,49.0887,42.0826,46.3945z M44.7396,54.8813
				c0.3607-2.0386,0.9349-3.9359,1.7004-5.7839c1.7409,0.6809,3.4581,1.3527,5.2222,2.0428
				C49.9394,53.423,47.6784,54.6795,44.7396,54.8813z M48.0497,55.9941c0.1104-0.075,0.168-0.1318,0.2371-0.1584
				c2.0742-0.8062,3.7076-2.1619,4.9538-3.9913c0.16-0.2349,0.3011-0.3304,0.5951-0.2591c0.5385,0.1303,1.0889,0.2129,1.6861,0.3253
				C54.3136,54.2325,50.6827,56.2122,48.0497,55.9941z M56.373,50.2959c-0.6663-0.1072-1.35-0.217-2.0924-0.3363
				c1.3541-3.6413,0.9522-7.0361-1.0835-10.2574C56.7385,42.1272,57.8779,46.7177,56.373,50.2959z"/>
		</g>
	</g>
</g>
</svg>
